X: 38059
T: Spinster's, The
R: waltz
M: 3/4
K: Dmajor
FA|:d3c Bc|F4 FA|d3c Bc|F4 FA|
d3c BA|c3B A2|A2 c4-|c4 EG|
d3c Bc|G4 EG|d3c Bc|G4 EG|
[1 d3c BA|c3B A2|A2 d4-|d4 FA:|
[2 c3G AB|c3A Bc|d2 f4-|f6||
|:dg bd gb|dg bd gb|a6|f6|
Bd gB dg|Bd gB dg|f6-|f3 z3|
Bd gB dg|Bd gB dg|f6|d4 c2|
B4 c2|A4 D2|D6-|D3 z3:|

